!!!COM: Palestrina, Giovanni Perluigi da
!!!OPR: Missa Veni creator Spiritus
!!!OMD: Credo
!!!OTL: secundum Scripturas
**kern	**kern	**kern	**kern
*Ibass	*Itenor	*Icalto	*Icant
!Bassus	!Tenor	!Altus	!Cantus
*clefF4	*clefGv2	*clefG2	*clefG2
*k[]	*k[]	*k[]	*k[]
*G:mix	*G:mix	*G:mix	*G:mix
*M4/2	*M4/2	*M4/2	*M4/2
=103	=103	=103	=103
1E	1B	1g#	0ee
1A	1c	2r	.
.	.	[2a	.
=104	=104	=104	=104
1c	1e	2a]	0r
.	.	1g	.
2B	2d	.	.
2A	2c	2f	.
=105	=105	=105	=105
2.G	2.B	2e	1r
.	.	2.d	.
4F	4A	.	.
1E	1G	.	2r
.	.	8c#	.
.	.	8B	.
.	.	2c#	[2gg
=106	=106	=106	=106
1D	2A	2d	2gg]
.	2d	2a	1ff
1r	1a	1cc	.
.	.	.	2ee
=107	=107	=107	=107
1r	2f	2a	2dd
.	2e	2g	2.cc
1G	1d	1g	.
.	.	.	8b
.	.	.	8a
.	.	.	2b
=108	=108	=108	=108
1A	2c	1e	1cc
.	2c	.	.
1B	1d	1r	1r
=109	=109	=109	=109
2c	1e	0r	0r
2A	.	.	.
4d	2f	.	.
4c	.	.	.
4B	2d	.	.
4A	.	.	.
=110	=110	=110	=110
4G	2.g	0r	0r
4F	.	.	.
4E	.	.	.
4D	4f	.	.
2C	4e	.	.
.	4d	.	.
[2c	4c	.	.
.	4B	.	.
=111	=111	=111	=111
4c]	4A	2r	0r
8B	4G	.	.
8A	.	.	.
2B	2.g	2g	.
2c	.	1a	.
.	8f#	.	.
.	8e	.	.
2d	2f#	.	.
=112	=112	=112	=112
1G	1g	1b	1dd
1r	2r	2.cc	1ee
.	2c	.	.
.	.	4b	.
=113	=113	=113	=113
0r	2d	2a	1ff#
.	2d	2.b	.
.	2.e	.	2.gg
.	.	4g	.
.	.	[2cc	.
.	4d	.	4ff
=114	=114	=114	=114
0r	2c	4cc]	2ee
.	.	4b	.
.	2.d	4a	2.ff
.	.	4g	.
.	.	2f	.
.	4c	.	4ee
.	4B	[2g	4dd
.	4A	.	4cc
=115	=115	=115	=115
0r	2G	4g]	4b
.	.	4f	4a
.	1g	4e	2b
.	.	4d	.
.	.	2c	1a
.	2f#	2d	.
=116	=116	=116	=116
2r	2g	1e	0g
2c	2e	.	.
2.c	2.e	2r	.
.	.	2g	.
4c	4e	.	.
=117	=117	=117	=117
2B	2d	2.g	0r
2c	2e	.	.
.	.	4g	.
[1A	2f	2a	.
.	4e	2cc	.
.	4d	.	.
=118	=118	=118	=118
2A]	2e	2cc	1r
2G	2e	2b	.
[1F	2f	2a	2r
.	2f	2a	2cc
=119	=119	=119	=119
1F]	2.f	2.a	2.cc
.	4f	4a	4cc
1r	2e	2g	2cc
.	[2d	[2a	[2ff
=120	=120	=120	=120
0r	2d]	2a]	2ff]
.	2c	2a	2ee
.	1B-	1b-	1dd
=121	=121	=121	=121
2.F	1f	1.a	2cc
.	.	.	4a
4G	.	.	4b
4A	1e	.	4cc
4B	.	.	4dd
2c	.	2g	[2ee
=122	=122	=122	=122
1A	2c	1a	2ee]
.	2e	.	1cc
1F	2.f	1a	.
.	.	.	2dd
.	4e	.	.
=123	=123	=123	=123
1.G	1.d	1.g	1.b-
2D	2d	2f	2a
=124	=124	=124	=124
1D	1d	1f	1a
2r	2r	2r	2r
[2D	[2d	[2f	[2a
=125	=125	=125	=125
2D]	2d]	2f]	2a]
2G	2d	2g	2b
1F	1f	1a	1cc
=126	=126	=126	=126
2.F	2.f	2a	1.cc
.	.	2f	.
4G	8e	.	.
.	8d	.	.
1A	1c	2e	.
.	.	4c	2cc
.	.	4d	.
=127	=127	=127	=127
0r	1r	4e	2b
.	.	4d	.
.	.	4e	4g
.	.	4f	4a
.	2r	2g	4b
.	.	.	4cc
.	2B	4d	2dd
.	.	4e	.
=128	=128	=128	=128
0r	2d	4f	4a
.	.	4g	4b
.	2A	1a	4cc
.	.	.	4a
.	1e	.	1b
.	.	2g#	.
=129	=129	=129	=129
2r	2A	1a	2a
1A	1e	.	1cc
.	.	2r	.
2d	2f	2d	2b
=130	=130	=130	=130
1c	2g	2e	0cc
.	2a	2.f	.
2c	1g	.	.
.	.	8e	.
.	.	8d	.
2c	.	2e	.
=131	=131	=131	=131
2A	1a	2f	[0cc
2F	.	2f	.
4A	2r	2e	.
4G	.	.	.
4A	2f	2c	.
4B	.	.	.
=132	=132	=132	=132
2.c	2e	2r	1cc]
.	2c	2cc	.
8B	.	.	.
8A	.	.	.
1G	4d	2b	1r
.	4c	.	.
.	4d	2g	.
.	4e	.	.
=133	=133	=133	=133
1D	4f	4a	2r
.	4e	4g	.
.	4f	4a	2ff
.	4g	4b	.
1r	1a	[1cc	2ee
.	.	.	4cc
.	.	.	4dd
=134	=134	=134	=134
1r	2e	2cc]	4ee
.	.	.	4ff
.	2e	4b	2.gg
.	.	4a	.
1E	[1g	[1b	.
.	.	.	4ff
.	.	.	[2ee
=135	=135	=135	=135
2G	2g]	2b]	4ee]
.	.	.	4dd
2D	2f	4a	1dd
.	.	4g	.
1A	1e	1a	.
.	.	.	2cc#
=136	=136	=136	=136
0D	0d	0a	0dd
*-	*-	*-	*-
!!!CDT: 1525/^1526/-1594/2/2
!!!OCY: Italia
!!!AGN: Mass (Tenor)
!!!AST: renaissance, vocal
!!!ASW: Hymn
!!!PWK: Masses, Book 9
!!!RNB: Cadence finals: C,D
!!!YOR: Le Opere Complete, v. 25, p. 246
!!!YOO: Rome, Italy: Fratelli Scalera
!!!END: 1992//
!!!EED: John Miller
!!!YEC: Copyright 2000, John Miller
!!!YEN: United States of America
!!!YEM: Rights to all derivative electronic formats reserved.
!!!YEM: Refer to licensing agreement for further details.
!!!YEM: This file must be accompanied by the licensing agreement.
!!!YEM: A copy of the licensing agreement may be found at http://www.music-cog.ohio-state.edu/HumdrumDatabases/Palestrina/license.txt
!!!EMD: converted to Humdrum by Bret Aarden
